images_sukapura_svg/cmd/lc_defineprintarea.svg

<svg viewBox="0 0 24 24" xmlns="http://www.w3.org/2000/svg" xmlns:xlink="http://www.w3.org/1999/xlink"><linearGradient id="a" gradientUnits="userSpaceOnUse" x1="7.273339" x2="7.480236" xlink:href="#b" y1="7.625454" y2="3.838238"/><linearGradient id="b" gradientTransform="translate(-25.830508 -3.59322)" gradientUnits="userSpaceOnUse" x1="14" x2="13.79661" y1="22" y2="2.135593"><stop offset="0" stop-color="#0040dd"/><stop offset="1" stop-color="#0a84ff"/></linearGradient><linearGradient id="c" gradientUnits="userSpaceOnUse" x1="9.5" x2="9.5" y1="7" y2="10"><stop offset="0" stop-color="#fff"/><stop offset=".08333334" stop-color="#fff" stop-opacity=".055147"/><stop offset="1" stop-color="#fff" stop-opacity=".247059"/><stop offset="1" stop-color="#fff" stop-opacity=".481618"/></linearGradient><linearGradient id="d" gradientUnits="userSpaceOnUse" x1="9" x2="9" xlink:href="#b" y1="20" y2="5"/><linearGradient id="e" gradientUnits="userSpaceOnUse" x1="15" x2="17.000001" y1="7" y2="4.999999"><stop offset="0" stop-color="#fff"/><stop offset=".77967989" stop-color="#f1f1f1"/><stop offset="1" stop-color="#d5d5d5"/></linearGradient><radialGradient id="f" cx="17" cy="6.555555" gradientTransform="matrix(1.4285714 -.00000006 .00000006 1.4285714 -7.285714 -4.365078)" gradientUnits="userSpaceOnUse" r="7"><stop offset="0" stop-color="#d7d7d7"/><stop offset=".29999998" stop-color="#f7f7f7"/><stop offset="1" stop-color="#fff"/></radialGradient><g transform="translate(-3)"><path d="m5 3v18h14v-14.2705905l-4-3.7294095z" fill="url(#f)"/><path d="m3 4v16h12v-14l-2-2zm1 1h7.972876l2.027124 2v12h-10z" fill="url(#d)" transform="translate(3)"/><path d="m5 2c-.554 0-1 .446-1 1v18c0 .554.446 1 1 1h14c.554 0 1-.446 1-1v-10.109375-3.6412209-.2079239c0-.4506799.09887-.4265951-.604637-1.0675892l-3.307389-3.2370335c-.709525-.7368575-.711223-.7368575-1.094804-.7368575h-.331557-.661613zm0 1h9v4c0 .554.446 1 1 1h4v13h-14z" fill="#98989d"/><path d="m15 7h4l-4-4z" fill="#fff" fill-rule="evenodd"/><path d="m15 3 4 4h-4z" fill="url(#e)"/></g><g transform="translate(7 8)"><rect fill="url(#a)" height="4.29661" ry="1" width="12" x="2" y="3.70339"/><path d="m5 11v4h6v-4z" fill="#fff" fill-rule="evenodd"/><path d="m4 12v3.142578c0 .474857.3825649.857422.8574219.857422h6.2851561c.474857 0 .838139-.382957.857422-.857422v-3.142578h-1v3h-6v-3z" fill="#98989d"/><path d="m4 1v4h8v-4z" fill="#fff" fill-rule="evenodd"/><path d="m13 10h2v1h-2z" fill="#fff"/><path d="m3.8574219 0c-.474857 0-.8574219.38256487-.8574219.85742188v5.14257812h1 8 1v-5.14257812c0-.47485701-.382565-.85742188-.857422-.85742188zm.1425781 1h8v4h-8z" fill="#98989d"/><path d="m1.5 5.5c-.554 0-1 .446-1 1v4c0 .554.446 1 1 1h2 1 7.5 2.5c.554 0 1-.446 1-1v-4c0-.554-.446-1-1-1h-1v2h-.5-9.5-1v-2z" fill="#98989d" stroke="#616165"/><path d="m2 6.5h.5v2h11v-2h.5c.277 0 .5.446.5 1v2c0 .554-.223 1-.5 1h-12c-.277 0-.5-.446-.5-1v-2c0-.554.223-1 .5-1z" fill="none" stroke="url(#c)" stroke-opacity=".658088"/></g></svg>

<?xml version="1.0" encoding="UTF-8" standalone="no"?>
<svg
   xmlns:dc="http://purl.org/dc/elements/1.1/"
   xmlns:cc="http://creativecommons.org/ns#"
   xmlns:rdf="http://www.w3.org/1999/02/22-rdf-syntax-ns#"
   xmlns:svg="http://www.w3.org/2000/svg"
   xmlns="http://www.w3.org/2000/svg"
   xmlns:xlink="http://www.w3.org/1999/xlink"
   xmlns:sodipodi="http://sodipodi.sourceforge.net/DTD/sodipodi-0.dtd"
   xmlns:inkscape="http://www.inkscape.org/namespaces/inkscape"
   viewBox="0 0 24 24"
   version="1.1"
   id="svg24"
   sodipodi:docname="lc_defineprintarea.svg"
   inkscape:version="0.92.3 (2405546, 2018-03-11)"
   inkscape:export-filename="/home/rizmut/Documents/Rizmut/Github/libreoffice-style-sukapura/images_sukapura/cmd/lc_defineprintarea.png"
   inkscape:export-xdpi="96"
   inkscape:export-ydpi="96">
  <metadata
     id="metadata30">
    <rdf:RDF>
      <cc:Work
         rdf:about="">
        <dc:format>image/svg+xml</dc:format>
        <dc:type
           rdf:resource="http://purl.org/dc/dcmitype/StillImage" />
        <dc:title></dc:title>
      </cc:Work>
    </rdf:RDF>
  </metadata>
  <defs
     id="defs28">
    <linearGradient
       inkscape:collect="always"
       xlink:href="#a-3"
       id="linearGradient868"
       x1="7.2733388"
       y1="7.6254539"
       x2="7.4802356"
       y2="3.838238"
       gradientUnits="userSpaceOnUse" />
    <linearGradient
       gradientTransform="translate(-25.830508,-3.5932203)"
       id="a-3"
       gradientUnits="userSpaceOnUse"
       x1="14"
       x2="13.79661"
       y1="22"
       y2="2.1355929">
      <stop
         offset="0"
         stop-color="#0040dd"
         id="stop2-6" />
      <stop
         offset="1"
         stop-color="#0a84ff"
         id="stop4-7" />
    </linearGradient>
    <linearGradient
       id="a-7"
       gradientUnits="userSpaceOnUse"
       x1="9.5"
       x2="9.5"
       y1="7"
       y2="10">
      <stop
         offset="0"
         stop-color="#fff"
         id="stop2-4" />
      <stop
         offset=".08333334"
         stop-color="#fff"
         stop-opacity=".055147"
         id="stop4-1" />
      <stop
         offset="1"
         stop-color="#fff"
         stop-opacity=".247059"
         id="stop6-0" />
      <stop
         offset="1"
         stop-color="#fff"
         stop-opacity=".481618"
         id="stop8" />
    </linearGradient>
    <linearGradient
       inkscape:collect="always"
       xlink:href="#a-3"
       id="linearGradient4843"
       x1="9"
       y1="20"
       x2="9"
       y2="5"
       gradientUnits="userSpaceOnUse" />
  </defs>
  <sodipodi:namedview
     pagecolor="#ffffff"
     bordercolor="#666666"
     borderopacity="1"
     objecttolerance="10"
     gridtolerance="10"
     guidetolerance="10"
     inkscape:pageopacity="0"
     inkscape:pageshadow="2"
     inkscape:window-width="1366"
     inkscape:window-height="685"
     id="namedview26"
     showgrid="true"
     inkscape:zoom="19.666667"
     inkscape:cx="6.9267113"
     inkscape:cy="15.99851"
     inkscape:window-x="0"
     inkscape:window-y="0"
     inkscape:window-maximized="1"
     inkscape:current-layer="svg24">
    <inkscape:grid
       type="xygrid"
       id="grid4003" />
  </sodipodi:namedview>
  <linearGradient
     id="a"
     gradientUnits="userSpaceOnUse"
     x1="15"
     x2="17.0000008"
     y1="7"
     y2="4.9999992">
    <stop
       offset="0"
       stop-color="#fff"
       id="stop2" />
    <stop
       offset=".77967989"
       stop-color="#f1f1f1"
       id="stop4" />
    <stop
       offset="1"
       stop-color="#d5d5d5"
       id="stop6" />
  </linearGradient>
  <radialGradient
     id="b"
     cx="17"
     cy="6.555555"
     gradientTransform="matrix(1.4285714,-6e-8,6e-8,1.4285714,-7.285714,-4.365078)"
     gradientUnits="userSpaceOnUse"
     r="7">
    <stop
       offset="0"
       stop-color="#d7d7d7"
       id="stop9" />
    <stop
       offset=".29999998"
       stop-color="#f7f7f7"
       id="stop11" />
    <stop
       offset="1"
       stop-color="#fff"
       id="stop13" />
  </radialGradient>
  <g
     id="g844"
     transform="translate(-3)">
    <path
       id="path16"
       d="M 5,3 V 21 H 19 V 6.7294095 L 15,3 Z"
       style="fill:url(#b)"
       inkscape:connector-curvature="0" />
    <path
       style="opacity:1;fill:url(#linearGradient4843);fill-opacity:1;stroke:none;stroke-width:2;stroke-linecap:round;stroke-linejoin:round;stroke-miterlimit:4;stroke-dasharray:none;stroke-opacity:1"
       d="M 3,4 V 20 H 15 V 6 L 13,4 Z m 1,1 h 7.972876 L 14,7 V 19 H 4 Z"
       transform="translate(3)"
       id="rect4832"
       inkscape:connector-curvature="0"
       sodipodi:nodetypes="cccccccccccc" />
    <path
       id="path18"
       d="M 5,2 C 4.446,2 4,2.446 4,3 v 18 c 0,0.554 0.446,1 1,1 h 14 c 0.554,0 1,-0.446 1,-1 V 10.890625 7.2494041 7.0414802 C 20,6.5908003 20.09887,6.6148851 19.395363,5.973891 L 16.087974,2.7368575 C 15.378449,2 15.376751,2 14.99317,2 H 14.661613 14 Z m 0,1 h 9 v 4 c 0,0.554 0.446,1 1,1 h 4 V 21 H 5 Z"
       inkscape:connector-curvature="0"
       style="fill:#98989d" />
    <path
       id="path20"
       d="m 15,7 h 4 L 15,3 Z"
       inkscape:connector-curvature="0"
       style="fill:#ffffff;fill-rule:evenodd" />
    <path
       id="path22"
       d="m 15,3 4,4 h -4 z"
       style="fill:url(#a)"
       inkscape:connector-curvature="0" />
  </g>
  <g
     id="g4764"
     transform="translate(7,8)">
    <rect
       style="fill:url(#linearGradient868);fill-opacity:1"
       id="rect11"
       y="3.7033899"
       x="2"
       width="12"
       ry="1"
       height="4.2966099" />
    <path
       style="fill:#ffffff;fill-rule:evenodd"
       inkscape:connector-curvature="0"
       id="path13"
       d="m 5,11 v 4 h 6 v -4 z" />
    <path
       style="fill:#98989d"
       inkscape:connector-curvature="0"
       id="path15"
       d="m 4,12 v 3.142578 C 4,15.617435 4.3825649,16 4.8574219,16 H 11.142578 C 11.617435,16 11.980717,15.617043 12,15.142578 V 12 h -1 v 3 H 5 v -3 z" />
    <path
       style="fill:#ffffff;fill-rule:evenodd"
       inkscape:connector-curvature="0"
       id="path17"
       d="m 4,1 v 4 h 8 V 1 Z" />
    <path
       style="fill:#ffffff"
       inkscape:connector-curvature="0"
       id="path19"
       d="m 13,10 h 2 v 1 h -2 z" />
    <path
       style="fill:#98989d"
       inkscape:connector-curvature="0"
       id="path21"
       d="M 3.8574219,0 C 3.3825649,0 3,0.38256487 3,0.85742188 V 6 h 1 8 1 V 0.85742188 C 13,0.38256487 12.617435,0 12.142578,0 Z M 4,1 h 8 V 5 H 4 Z" />
    <path
       style="fill:#98989d;stroke:#616165"
       inkscape:connector-curvature="0"
       id="path23"
       d="m 1.5,5.5 c -0.554,0 -1,0.446 -1,1 v 4 c 0,0.554 0.446,1 1,1 h 2 1 7.5 2.5 c 0.554,0 1,-0.446 1,-1 v -4 c 0,-0.554 -0.446,-1 -1,-1 h -1 v 2 H 13 3.5 2.5 v -2 z" />
    <path
       style="fill:none;stroke:url(#a-7);stroke-opacity:0.65808835"
       inkscape:connector-curvature="0"
       id="path25"
       d="m 2,6.5 h 0.5 v 2 h 11 v -2 H 14 c 0.277,0 0.5,0.446 0.5,1 v 2 c 0,0.554 -0.223,1 -0.5,1 H 2 c -0.277,0 -0.5,-0.446 -0.5,-1 v -2 c 0,-0.554 0.223,-1 0.5,-1 z" />
  </g>
</svg>
